dhis-2/dhis-support/dhis-support-system/src/main/resources/SVGs/llin_negative.svg

<svg width="48" height="48" viewBox="0 0 48 48" fill="none" xmlns="http://www.w3.org/2000/svg">
<path fill-rule="evenodd" clip-rule="evenodd" d="M0 0V47.9994H47.9994V0H0ZM25.2147 3.96875C25.2427 3.95885 25.2647 3.97555 25.2767 4.02145C25.2877 4.05725 25.1607 4.41894 24.9997 4.81834C24.7537 5.42773 24.7087 5.63103 24.7127 6.08582C24.7157 6.38392 24.7317 6.64472 24.7497 6.66202C24.8277 6.73632 24.9727 6.57842 25.3027 6.06242C25.7287 5.39593 25.8987 5.20113 25.9567 5.30853C25.9957 5.38403 25.8257 5.72093 25.5097 6.19132C25.4307 6.30892 25.3837 6.42182 25.4057 6.44332C25.4287 6.46312 25.6487 6.52862 25.8977 6.58392C26.3877 6.69282 26.5677 6.83211 26.4407 7.00971C26.3947 7.07481 25.9527 7.22251 25.3847 7.36121C24.8477 7.49201 24.3717 7.6378 24.3257 7.6854C24.2527 7.7614 24.2767 7.7978 24.5117 7.9687C24.7637 8.1526 24.7797 8.1854 24.8067 8.51939C24.8297 8.82149 24.8757 8.92959 25.1167 9.21468C25.4407 9.59818 25.5427 9.81658 25.3977 9.82018C25.3347 9.82168 25.1817 9.67488 24.9447 9.38858C24.6347 9.01259 24.5887 8.91739 24.5777 8.65609C24.5717 8.49079 24.5137 8.3059 24.4507 8.246C24.3487 8.1486 24.3237 8.1584 24.2187 8.3261C24.1527 8.42939 24.0997 8.64529 24.1017 8.80459C24.1067 9.35868 23.8977 9.31568 23.8547 8.75379C23.8257 8.36119 23.6417 8.1079 23.4977 8.2597C23.4507 8.3093 23.4177 8.43559 23.4257 8.54089C23.4487 8.85089 23.3537 9.07259 23.0077 9.51158C22.7317 9.86128 22.6697 9.91648 22.6067 9.85728C22.5667 9.81758 22.5677 9.72228 22.6087 9.64638C22.6507 9.57008 22.7627 9.42578 22.8567 9.32608C23.0827 9.08679 23.1787 8.84789 23.1927 8.48039C23.2037 8.2145 23.2317 8.1577 23.4377 7.994C23.5797 7.88 23.6617 7.7758 23.6477 7.7245C23.6357 7.6796 23.1547 7.55211 22.5797 7.44331C22.0047 7.33481 21.4957 7.20621 21.4447 7.15811C21.2447 6.96771 21.4427 6.82311 22.1817 6.61712C22.5347 6.51892 22.5307 6.48512 22.1107 5.92183C21.9437 5.69723 21.8137 5.48153 21.8217 5.44133C21.8587 5.26603 22.0247 5.40173 22.3787 5.90223C22.7867 6.47852 23.0487 6.76791 23.1067 6.70692C23.1267 6.68712 23.1357 6.42082 23.1267 6.11902C23.1127 5.64993 23.0637 5.47053 22.7867 4.88084C22.4387 4.14005 22.4027 4.01255 22.5467 4.00975C22.6037 4.00845 22.7687 4.29095 22.9897 4.76554C23.3177 5.46803 23.3477 5.57503 23.3727 6.24402C23.3987 6.92271 23.4807 7.19591 23.6167 7.05261C23.6497 7.01691 23.6687 6.66892 23.6577 6.27532C23.6377 5.56323 23.6797 5.40763 23.8977 5.40223C24.1297 5.39833 24.2027 5.59433 24.2297 6.30652C24.2457 6.70682 24.2727 7.04891 24.2907 7.06631C24.4057 7.17641 24.4797 6.83361 24.4747 6.21672C24.4677 5.56043 24.4927 5.44343 24.7707 4.77144C24.9777 4.27365 25.1307 3.99815 25.2147 3.96875ZM7.7749 3.98825C7.8006 3.98715 7.8341 3.99765 7.8725 4.02145C7.936 4.06115 8.2358 4.71914 8.53859 5.48433C9.00029 6.65132 9.20538 6.99741 9.80998 7.621C10.2065 8.0298 10.5685 8.3632 10.6165 8.3632C10.8225 8.3632 10.8175 7.9551 10.5955 6.80651C10.3075 5.32313 10.2865 4.82984 10.5075 4.90224C10.6605 4.95274 10.8665 5.64753 11.0485 6.71472C11.0935 6.98141 11.1805 7.19911 11.2395 7.19911C11.2995 7.19911 11.6895 6.99381 12.1064 6.74212C12.9274 6.24782 13.3604 6.20532 13.4194 6.61712C13.4414 6.76852 13.0244 7.55251 12.4214 8.49209C11.8505 9.38008 11.3835 10.2129 11.3825 10.3399C11.3805 10.5409 11.4575 10.5569 12.0074 10.4839C12.5994 10.4059 12.6704 10.4299 13.1454 10.8589C13.5754 11.2479 13.7774 11.3329 14.4854 11.4099C15.4384 11.5139 15.8684 11.6819 15.6734 11.8769C15.5884 11.9618 15.1854 11.9599 14.4814 11.8749C13.5584 11.7629 13.3634 11.6949 13.0054 11.3479C12.7784 11.1279 12.4574 10.9489 12.2924 10.9489C12.0224 10.9489 12.0004 10.9919 12.0754 11.3649C12.1214 11.5939 12.3324 11.9609 12.5444 12.1798C13.2804 12.9398 12.9344 13.1568 12.1364 12.4358C11.5785 11.9319 10.9915 11.8209 10.9915 12.2208C10.9915 12.3518 11.1135 12.5698 11.2635 12.7048C11.7035 13.1028 11.8635 13.5388 11.9625 14.6018C12.0414 15.4478 12.0264 15.6038 11.8625 15.6038C11.7565 15.6038 11.6325 15.4708 11.5895 15.3108C11.5465 15.1498 11.5105 14.8068 11.5095 14.5448C11.5065 13.9158 11.3225 13.4588 10.8585 12.9318C10.5235 12.5498 10.4885 12.4298 10.5565 11.9339C10.6035 11.5879 10.5795 11.3359 10.4935 11.2829C10.4165 11.2359 9.58648 11.6959 8.64789 12.3028C7.7094 12.9098 6.83181 13.4058 6.69872 13.4058C6.17192 13.4058 6.25612 12.9408 7.00731 11.6839C7.36641 11.0819 7.31761 11.0429 5.99562 10.8159C5.46793 10.7259 5.00374 10.5979 4.96244 10.5309C4.78264 10.2399 5.19074 10.2109 6.33742 10.4359C7.6609 10.6949 8.40569 10.7509 8.40569 10.5899C8.40569 10.5349 8.0693 10.1549 7.6597 9.74988C7.02281 9.11969 6.71962 8.93729 5.56003 8.48619C4.10405 7.9198 3.88615 7.7892 4.08155 7.5956C4.15855 7.51931 4.75814 7.6896 5.68903 8.0546C7.06711 8.59469 7.24741 8.70799 8.1636 9.59948C9.09309 10.5039 9.56788 10.7739 9.56788 10.3959C9.56788 10.3059 9.13239 9.79718 8.59909 9.26748C7.634 8.3089 7.48921 8.0376 7.7847 7.7421C8.0969 7.42971 8.45579 7.607 9.43108 8.55649C9.97908 9.08989 10.4665 9.52528 10.5155 9.52528C10.8195 9.52528 10.4745 8.95899 9.65378 8.1132C8.78119 7.21351 8.66069 7.02121 8.1616 5.72453C7.7303 4.60404 7.5952 3.99525 7.7749 3.98825ZM43.8115 8.121C43.8745 8.1234 43.9374 8.126 43.9995 8.1288L43.9835 9.38658C43.8285 9.37708 43.6745 9.36858 43.5195 9.36118C43.0005 9.36828 42.4825 9.38718 41.9645 9.41788L41.9075 8.1933C41.9655 8.1892 42.0235 8.1853 42.0815 8.1815C42.6575 8.1472 43.2345 8.127 43.8115 8.121ZM39.5635 8.3671L39.7045 9.61508C39.0375 9.69118 38.3735 9.78698 37.7125 9.90218L37.4995 8.66199C37.7885 8.61479 38.0775 8.57119 38.3665 8.53109C38.7645 8.46959 39.1635 8.41489 39.5635 8.3671ZM35.1946 9.15218L35.4976 10.3959C34.7786 10.5829 34.0666 10.7939 33.3606 11.0269L32.9626 9.75768C33.1066 9.70658 33.2516 9.65648 33.3956 9.60728C33.8486 9.48168 34.3036 9.36518 34.7616 9.25768C34.9056 9.22158 35.0506 9.18648 35.1946 9.15218ZM30.7356 10.5449L31.1986 11.7439C30.5276 12.0178 29.8646 12.3128 29.2126 12.6288L28.6656 11.4429C29.1366 11.2109 29.6126 10.9889 30.0936 10.7769C30.3066 10.6979 30.5206 10.6199 30.7356 10.5449ZM26.5407 12.4978L27.1717 13.6558C26.5097 14.0188 25.8587 14.4028 25.2227 14.8088L24.5207 13.6988C25.1807 13.2768 25.8547 12.8758 26.5407 12.4978ZM22.5737 15.0618L23.3567 16.1308C22.7887 16.5628 22.2337 17.0118 21.6927 17.4788L20.8177 16.4198C20.9307 16.3168 21.0437 16.2148 21.1577 16.1128C21.1877 16.0898 21.2177 16.0678 21.2477 16.0448C21.6817 15.7068 22.1247 15.3798 22.5737 15.0618ZM30.4096 15.1598C34.5286 15.1598 37.8675 18.4978 37.8685 22.6167C37.8685 26.7367 34.5296 30.0756 30.4096 30.0756C26.2907 30.0756 22.9507 26.7367 22.9507 22.6167C22.9517 18.4978 26.2907 15.1598 30.4096 15.1598ZM19.0528 18.0208L19.9627 18.9798C19.4448 19.4938 18.9428 20.0237 18.4588 20.5697L17.4788 19.6618C17.8258 19.2598 18.1818 18.8658 18.5468 18.4798C18.7138 18.3258 18.8828 18.1728 19.0528 18.0208ZM15.9118 21.4647L16.9548 22.3107C16.4788 22.9037 16.0228 23.5137 15.5878 24.1387L14.5288 23.3887C14.9688 22.7317 15.4298 22.0897 15.9118 21.4647ZM7.6561 22.4547C7.6966 22.4567 7.7363 22.4797 7.7733 22.5197C7.8277 22.5777 7.8817 23.0407 7.9022 23.6247C7.9216 24.1767 7.9684 24.6737 8.0058 24.7287C8.0653 24.8157 8.1052 24.7987 8.3202 24.6037C8.55159 24.3927 8.58959 24.3837 8.92179 24.4257C9.22228 24.4657 9.33198 24.4437 9.66008 24.2637C10.1009 24.0237 10.3379 23.9677 10.3119 24.1087C10.3009 24.1707 10.1269 24.2917 9.79868 24.4647C9.36788 24.6917 9.26558 24.7207 9.00769 24.6777C8.84439 24.6497 8.65119 24.6697 8.57999 24.7187C8.46379 24.7987 8.46839 24.8247 8.61119 24.9627C8.69929 25.0477 8.89819 25.1407 9.05459 25.1717C9.59818 25.2787 9.51568 25.4767 8.95689 25.4037C8.56659 25.3537 8.281 25.4837 8.40029 25.6557C8.43939 25.7127 8.55539 25.7697 8.66009 25.7827C8.96819 25.8227 9.16738 25.9607 9.52718 26.3887C9.81368 26.7287 9.85168 26.8027 9.78108 26.8517C9.73518 26.8827 9.64398 26.8607 9.57798 26.8047C9.51168 26.7477 9.39448 26.6137 9.31628 26.5017C9.12769 26.2317 8.91149 26.0887 8.55459 25.9997C8.2964 25.9357 8.2457 25.8957 8.1269 25.6617C8.0442 25.4987 7.9568 25.3977 7.9042 25.3997C7.8576 25.4037 7.637 25.8477 7.41401 26.3887C7.19111 26.9297 6.96151 27.4037 6.90421 27.4427C6.67742 27.6007 6.57722 27.3787 6.52532 26.6127C6.50062 26.2477 6.46652 26.2437 5.83003 26.5407C5.57593 26.6587 5.33643 26.7407 5.29873 26.7247C5.13474 26.6527 5.30293 26.5207 5.86323 26.2747C6.51032 25.9917 6.84871 25.7917 6.80071 25.7227C6.78481 25.6987 6.52562 25.6377 6.22842 25.5857C5.76623 25.5037 5.58083 25.5167 4.94724 25.6677C4.15145 25.8577 4.01845 25.8657 4.04485 25.7247C4.05515 25.6687 4.36545 25.5637 4.87494 25.4427C5.62923 25.2647 5.73993 25.2587 6.40032 25.3687C7.07021 25.4807 7.35481 25.4567 7.24211 25.2947C7.21491 25.2547 6.87581 25.1667 6.48822 25.0977C5.78683 24.9727 5.64443 24.8987 5.68353 24.6837C5.72463 24.4557 5.93363 24.4247 6.63662 24.5427C7.03161 24.6087 7.36981 24.6507 7.39051 24.6367C7.52161 24.5457 7.20491 24.4037 6.59952 24.2847C5.95553 24.1577 5.84573 24.1117 5.24403 23.7027C4.64994 23.2987 4.42194 23.0647 4.61124 23.0547C4.64994 23.0517 4.97544 23.2467 5.33393 23.4857C5.88083 23.8507 6.07322 23.9387 6.51942 24.0267C6.81181 24.0847 7.06721 24.1197 7.08781 24.1047C7.17641 24.0437 7.05151 23.8687 6.61322 23.4407C6.04702 22.8887 5.89083 22.6827 6.00772 22.6477C6.08962 22.6247 6.38462 22.8617 6.78111 23.2677C6.88041 23.3687 6.98221 23.4377 7.00771 23.4197C7.03321 23.4037 7.14121 23.1957 7.24601 22.9627C7.40041 22.6197 7.53491 22.4497 7.6561 22.4547ZM13.2378 25.3977L14.3608 26.0857C13.9918 26.7177 13.6438 27.3607 13.3158 28.0157L12.1618 27.4057C12.4988 26.7257 12.8578 26.0557 13.2378 25.3977ZM11.1349 29.5656L12.2928 30.0836C12.0008 30.7816 11.7329 31.4886 11.4879 32.2046L10.2949 31.7636C10.5509 31.0216 10.8309 30.2886 11.1349 29.5656ZM22.9257 31.3396H37.6885C41.1405 31.3396 43.9214 34.0836 43.9934 37.5175H43.9995V37.6515V43.9625H16.6128V37.6515V37.5175H16.6188C16.6918 34.0836 19.4748 31.3396 22.9257 31.3396ZM9.55288 34.0386L10.7712 34.3996C10.5752 35.0866 10.3992 35.7796 10.2462 36.4785L8.99039 36.1885C9.15549 35.4666 9.34308 34.7496 9.55288 34.0386ZM8.57439 38.5485L9.84978 38.7535C9.73988 39.5065 9.65518 40.2635 9.59588 41.0225L8.2932 40.8995C8.296 40.7975 8.2992 40.6955 8.3029 40.5935C8.3332 40.3295 8.3664 40.0655 8.4025 39.8025C8.45239 39.3835 8.50969 38.9655 8.57439 38.5485ZM8.2033 43.2905L9.42788 43.3215C9.42458 43.3675 9.42128 43.4125 9.41818 43.4585C9.42328 43.6355 9.42978 43.8125 9.43768 43.9895L8.1994 44.0035C8.1945 43.9145 8.19 43.8264 8.1857 43.7375C8.1907 43.5885 8.1965 43.4395 8.2033 43.2905Z" fill="#333333"/>
</svg>

<?xml version="1.0" encoding="UTF-8" standalone="no"?>
<!-- Created with Inkscape (http://www.inkscape.org/) -->
<svg id="svg8" xmlns:rdf="http://www.w3.org/1999/02/22-rdf-syntax-ns#" xmlns="http://www.w3.org/2000/svg" xmlns:osb="http://www.openswatchbook.org/uri/2009/osb" height="48" width="48" version="1.1" xmlns:cc="http://creativecommons.org/ns#" viewBox="0 0 12.7 12.7" xmlns:dc="http://purl.org/dc/elements/1.1/">
 <title id="title4753">UIO-icon</title>
 <metadata id="metadata5">
  <rdf:RDF>
   <cc:Work rdf:about="">
    <dc:format>image/svg+xml</dc:format>
    <dc:type rdf:resource="http://purl.org/dc/dcmitype/StillImage"/>
    <dc:title>UIO-icon</dc:title>
    <dc:creator>
     <cc:Agent>
      <dc:title>Joaquín Urbano</dc:title>
     </cc:Agent>
    </dc:creator>
    <dc:rights>
     <cc:Agent>
      <dc:title>GPL</dc:title>
     </cc:Agent>
    </dc:rights>
   </cc:Work>
  </rdf:RDF>
 </metadata>
 <g id="layer1" fill="#333" transform="translate(0,-284.3)">
  <path id="rect917" d="m0 0v48h48v-48h-48zm25.215 3.9688c0.028-0.0099 0.05 0.0068 0.062 0.0527 0.011 0.0358-0.116 0.3975-0.277 0.7969-0.246 0.6094-0.291 0.8127-0.287 1.2675 0.003 0.2981 0.019 0.5589 0.037 0.5762 0.078 0.0743 0.223-0.0836 0.553-0.5996 0.426-0.6665 0.596-0.8613 0.654-0.7539 0.039 0.0755-0.131 0.4124-0.447 0.8828-0.079 0.1176-0.126 0.2305-0.104 0.252 0.023 0.0198 0.243 0.0853 0.492 0.1406 0.49 0.1089 0.67 0.2482 0.543 0.4258-0.046 0.0651-0.488 0.2128-1.056 0.3515-0.537 0.1308-1.013 0.2766-1.059 0.3242-0.073 0.076-0.049 0.1124 0.186 0.2833 0.252 0.1839 0.268 0.2167 0.295 0.5507 0.023 0.3021 0.069 0.4102 0.31 0.6953 0.324 0.3835 0.426 0.6019 0.281 0.6055-0.063 0.0015-0.216-0.1453-0.453-0.4316-0.31-0.376-0.356-0.4712-0.367-0.7325-0.006-0.1653-0.064-0.3502-0.127-0.4101-0.102-0.0974-0.127-0.0876-0.232 0.0801-0.066 0.1033-0.119 0.3192-0.117 0.4785 0.005 0.5541-0.204 0.5111-0.247-0.0508-0.029-0.3926-0.213-0.6459-0.357-0.4941-0.047 0.0496-0.08 0.1759-0.072 0.2812 0.023 0.31-0.072 0.5317-0.418 0.9707-0.276 0.3497-0.338 0.4049-0.401 0.3457-0.04-0.0397-0.039-0.135 0.002-0.2109 0.042-0.0763 0.154-0.2206 0.248-0.3203 0.226-0.2393 0.322-0.4782 0.336-0.8457 0.011-0.2659 0.039-0.3227 0.245-0.4864 0.142-0.114 0.224-0.2182 0.21-0.2695-0.012-0.0449-0.493-0.1724-1.068-0.2812-0.575-0.1085-1.084-0.2371-1.135-0.2852-0.2-0.1904-0.002-0.335 0.737-0.541 0.353-0.0982 0.349-0.132-0.071-0.6953-0.167-0.2246-0.297-0.4403-0.289-0.4805 0.037-0.1753 0.203-0.0396 0.557 0.4609 0.408 0.5763 0.67 0.8657 0.728 0.8047 0.02-0.0198 0.029-0.2861 0.02-0.5879-0.014-0.4691-0.063-0.6485-0.34-1.2382-0.348-0.7408-0.384-0.8683-0.24-0.8711 0.057-0.0013 0.222 0.2812 0.443 0.7558 0.328 0.7025 0.358 0.8095 0.383 1.4785 0.026 0.6787 0.108 0.9519 0.244 0.8086 0.033-0.0357 0.052-0.3837 0.041-0.7773-0.02-0.7121 0.022-0.8677 0.24-0.8731 0.232-0.0039 0.305 0.1921 0.332 0.9043 0.016 0.4003 0.043 0.7424 0.061 0.7598 0.115 0.1101 0.189-0.2327 0.184-0.8496-0.007-0.6563 0.018-0.7733 0.296-1.4453 0.207-0.4978 0.36-0.7733 0.444-0.8027zm-17.44 0.0195c0.0257-0.0011 0.0592 0.0094 0.0976 0.0332 0.0635 0.0397 0.3633 0.6977 0.6661 1.4629 0.4617 1.167 0.6668 1.5131 1.2714 2.1367 0.3965 0.4088 0.7585 0.7422 0.8065 0.7422 0.206 0 0.201-0.4081-0.021-1.5567-0.288-1.4834-0.309-1.9767-0.088-1.9043 0.153 0.0505 0.359 0.7453 0.541 1.8125 0.045 0.2667 0.132 0.4844 0.191 0.4844 0.06 0 0.45-0.2053 0.867-0.457 0.821-0.4943 1.254-0.5368 1.313-0.125 0.022 0.1514-0.395 0.9354-0.998 1.875-0.571 0.888-1.038 1.7208-1.039 1.8478-0.002 0.201 0.075 0.217 0.625 0.144 0.592-0.078 0.663-0.054 1.138 0.375 0.43 0.389 0.632 0.474 1.34 0.551 0.953 0.104 1.383 0.272 1.188 0.467-0.085 0.085-0.488 0.083-1.192-0.002-0.923-0.112-1.118-0.18-1.476-0.527-0.227-0.22-0.548-0.399-0.713-0.399-0.27 0-0.292 0.043-0.217 0.416 0.046 0.229 0.257 0.596 0.469 0.815 0.736 0.76 0.39 0.977-0.408 0.256-0.558-0.504-1.145-0.615-1.145-0.215 0 0.131 0.122 0.349 0.272 0.484 0.44 0.398 0.6 0.834 0.699 1.897 0.079 0.846 0.064 1.002-0.1 1.002-0.106 0-0.23-0.133-0.273-0.293-0.043-0.161-0.079-0.504-0.08-0.766-0.003-0.629-0.187-1.086-0.651-1.613-0.335-0.382-0.37-0.502-0.302-0.998 0.047-0.346 0.023-0.598-0.063-0.651-0.077-0.047-0.907 0.413-1.8456 1.02-0.9385 0.607-1.8161 1.103-1.9492 1.103-0.5268 0-0.4426-0.465 0.3086-1.722 0.3591-0.602 0.3103-0.641-1.0117-0.868-0.5277-0.09-0.9919-0.218-1.0332-0.285-0.1798-0.291 0.2283-0.32 1.375-0.095 1.3235 0.259 2.0683 0.315 2.0683 0.154 0-0.055-0.3364-0.435-0.746-0.84-0.6369-0.6302-0.9401-0.8126-2.0997-1.2637-1.456-0.5664-1.6739-0.697-1.4785-0.8906 0.077-0.0763 0.6766 0.094 1.6075 0.459 1.3781 0.5401 1.5584 0.6534 2.4746 1.5449 0.9295 0.9044 1.4043 1.1744 1.4043 0.7964 0-0.09-0.4355-0.5987-0.9688-1.1284-0.9651-0.9586-1.1099-1.2299-0.8144-1.5254 0.3122-0.3124 0.6711-0.1351 1.6464 0.8144 0.548 0.5334 1.0354 0.9688 1.0844 0.9688 0.304 0-0.041-0.5663-0.8617-1.4121-0.8726-0.8997-0.9931-1.092-1.4922-2.3887-0.4313-1.1205-0.5664-1.7293-0.3867-1.7363zm36.037 4.1328c0.063 0.0024 0.126 0.005 0.188 0.0078l-0.016 1.2578c-0.155-0.0095-0.309-0.018-0.464-0.0254-0.519 0.0071-1.037 0.026-1.555 0.0567l-0.057-1.2246c0.058-0.0041 0.116-0.008 0.174-0.0118 0.576-0.0343 1.153-0.0545 1.73-0.0605zm-4.248 0.2461l0.141 1.248c-0.667 0.0761-1.331 0.1719-1.992 0.2871l-0.213-1.2402c0.289-0.0472 0.578-0.0908 0.867-0.1309 0.398-0.0615 0.797-0.1162 1.197-0.164zm-4.369 0.7851l0.303 1.2437c-0.719 0.187-1.431 0.398-2.137 0.631l-0.398-1.2692c0.144-0.0511 0.289-0.1012 0.433-0.1504 0.453-0.1256 0.908-0.2421 1.366-0.3496 0.144-0.0361 0.289-0.0712 0.433-0.1055zm-4.459 1.3927l0.463 1.199c-0.671 0.274-1.334 0.569-1.986 0.885l-0.547-1.186c0.471-0.232 0.947-0.454 1.428-0.666 0.213-0.079 0.427-0.157 0.642-0.232zm-4.195 1.953l0.631 1.158c-0.662 0.363-1.313 0.747-1.949 1.153l-0.702-1.11c0.66-0.422 1.334-0.823 2.02-1.201zm-3.967 2.564l0.783 1.069c-0.568 0.432-1.123 0.881-1.664 1.348l-0.875-1.059c0.113-0.103 0.226-0.205 0.34-0.307 0.03-0.023 0.06-0.045 0.09-0.068 0.434-0.338 0.877-0.665 1.326-0.983zm7.836 0.098c4.119 0 7.458 3.338 7.459 7.457 0 4.12-3.339 7.459-7.459 7.459-4.119 0-7.459-3.339-7.459-7.459 0.001-4.119 3.34-7.457 7.459-7.457zm-11.357 2.861l0.91 0.959c-0.518 0.514-1.02 1.044-1.504 1.59l-0.98-0.908c0.347-0.402 0.703-0.796 1.068-1.182 0.167-0.154 0.336-0.307 0.506-0.459zm-3.141 3.444l1.043 0.846c-0.476 0.593-0.932 1.203-1.367 1.828l-1.059-0.75c0.44-0.657 0.901-1.299 1.383-1.924zm-8.2558 0.99c0.0405 0.002 0.0802 0.025 0.1172 0.065 0.0544 0.058 0.1084 0.521 0.1289 1.105 0.0194 0.552 0.0662 1.049 0.1036 1.104 0.0595 0.087 0.0994 0.07 0.3144-0.125 0.2314-0.211 0.2694-0.22 0.6016-0.178 0.3005 0.04 0.4102 0.018 0.7383-0.162 0.4408-0.24 0.6778-0.296 0.6518-0.155-0.011 0.062-0.185 0.183-0.5132 0.356-0.4308 0.227-0.5331 0.256-0.791 0.213-0.1633-0.028-0.3565-0.008-0.4277 0.041-0.1162 0.08-0.1116 0.106 0.0312 0.244 0.0881 0.085 0.287 0.178 0.4434 0.209 0.5436 0.107 0.4611 0.305-0.0977 0.232-0.3903-0.05-0.6759 0.08-0.5566 0.252 0.0391 0.057 0.1551 0.114 0.2598 0.127 0.3081 0.04 0.5073 0.178 0.8671 0.606 0.2865 0.34 0.3245 0.414 0.2539 0.463-0.0459 0.031-0.1371 0.009-0.2031-0.047-0.0663-0.057-0.1835-0.191-0.2617-0.303-0.1886-0.27-0.4048-0.413-0.7617-0.502-0.2582-0.064-0.3089-0.104-0.4277-0.338-0.0827-0.163-0.1701-0.264-0.2227-0.262-0.0466 0.004-0.2672 0.448-0.4902 0.989-0.2229 0.541-0.4525 1.015-0.5098 1.054-0.2268 0.158-0.327-0.064-0.3789-0.83-0.0247-0.365-0.0588-0.369-0.6953-0.072-0.2541 0.118-0.4936 0.2-0.5313 0.184-0.164-0.072 0.0042-0.204 0.5645-0.45 0.6471-0.283 0.9855-0.483 0.9375-0.552-0.0159-0.024-0.2751-0.085-0.5723-0.137-0.4622-0.082-0.6476-0.069-1.2812 0.082-0.7958 0.19-0.9288 0.198-0.9024 0.057 0.0103-0.056 0.3206-0.161 0.8301-0.282 0.7543-0.178 0.865-0.184 1.5254-0.074 0.6699 0.112 0.9545 0.088 0.8418-0.074-0.0272-0.04-0.3663-0.128-0.7539-0.197-0.7014-0.125-0.8438-0.199-0.8047-0.414 0.0411-0.228 0.2501-0.259 0.9531-0.141 0.395 0.066 0.7332 0.108 0.7539 0.094 0.1311-0.091-0.1856-0.233-0.791-0.352-0.644-0.127-0.7538-0.173-1.3555-0.582-0.5941-0.404-0.8221-0.638-0.6328-0.648 0.0387-0.003 0.3642 0.192 0.7227 0.431 0.5469 0.365 0.7393 0.453 1.1855 0.541 0.2924 0.058 0.5478 0.093 0.5684 0.078 0.0886-0.061-0.0363-0.236-0.4746-0.664-0.5662-0.552-0.7224-0.758-0.6055-0.793 0.0819-0.023 0.3769 0.214 0.7734 0.62 0.0993 0.101 0.2011 0.17 0.2266 0.152 0.0255-0.016 0.1335-0.224 0.2383-0.457 0.1544-0.343 0.2889-0.513 0.4101-0.508zm5.5818 2.943l1.123 0.688c-0.369 0.632-0.717 1.275-1.045 1.93l-1.154-0.61c0.337-0.68 0.696-1.35 1.076-2.008zm-2.103 4.168l1.158 0.518c-0.292 0.698-0.56 1.405-0.805 2.121l-1.193-0.441c0.256-0.742 0.536-1.475 0.84-2.198zm11.791 1.774h14.763c3.452 0 6.233 2.744 6.305 6.178h0.006v0.134 6.311h-27.387v-6.311-0.134h0.006c0.073-3.434 2.856-6.178 6.307-6.178zm-13.373 2.699l1.2183 0.361c-0.196 0.687-0.372 1.38-0.525 2.079l-1.2558-0.29c0.1651-0.722 0.3527-1.439 0.5625-2.15zm-0.9785 4.51l1.2754 0.205c-0.1099 0.753-0.1946 1.51-0.2539 2.269l-1.3027-0.123c0.0028-0.102 0.006-0.204 0.0097-0.306 0.0303-0.264 0.0635-0.528 0.0996-0.791 0.0499-0.419 0.1072-0.837 0.1719-1.254zm-0.3711 4.742l1.2246 0.031c-0.0033 0.046-0.0066 0.091-0.0097 0.137 0.0051 0.177 0.0116 0.354 0.0195 0.531l-1.2383 0.014c-0.0049-0.089-0.0094-0.177-0.0137-0.266 0.005-0.149 0.0108-0.298 0.0176-0.447z" fill-rule="evenodd" transform="matrix(.26458 0 0 .26458 0 284.3)"/>
 </g>
</svg>
